X:614
%%etbk:tnset id:358,pos:1,rep:3x,ant:
%%etbk:wsite http://comhaltas.ie/music/detail/comhaltaslive_246_1_cruinniu
%%etbk:wsite http://thesession.org/tunes/2241
%%etbk:video src:ytube,cde:n5kEiE6bDxk,desc:
%%etbk:pldat 2016-06-04T14:31,2016-06-01T16:00,2016-05-31T15:35,2016-05-29T11:13,2016-05-19T19:28,2016-05-18T16:11,2016-05-17T17:07,2016-05-16T15:28,2016-05-15T15:38,2016-05-14T16:47,2016-05-13T15:29,2016-05-12T18:25,2016-05-11T15:36,2016-05-10T18:57,2016-04-30T17:12,2015-09-02T17:05,2015-08-26T16:10,2015-08-06T18:13,2015-08-05T16:40,2015-08-04T17:13,2015-08-03T18:42,2015-07-31T17:26,2015-07-29T15:16,2015-07-20T18:18,2015-06-26T16:35,2015-06-17T15:36,2015-06-16T15:17,2015-05-07T18:19,2015-04-16T18:02,2015-04-15T15:24,2015-04-13T18:05,2015-04-12T09:54,2015-04-11T13:24,2015-04-08T16:41,2015-03-19T17:44,2015-03-16T18:09,2015-03-15T13:25,2015-03-11T15:20,2015-03-05T18:19,2015-02-22T14:57,2015-02-21T16:10,2015-02-19T18:24,2015-02-18T15:26,2015-02-16T19:27,2015-02-14T13:55,2015-02-12T18:44,2015-02-10T16:28,2015-02-04T15:30,2015-02-03T15:49,2015-01-29T19:08,2015-01-28T16:27,2015-01-25T15:53,2015-01-22T18:45,2015-01-21T16:56,2015-01-14T17:06,2015-01-13T17:23,2015-01-12T18:21,2015-01-08T18:08,2015-01-06T18:57,2014-12-31T14:33,2014-12-29T16:04,2014-12-28T13:27,2014-12-26T14:45,2014-12-20T13:33,2014-12-15T15:07,2014-12-10T15:12,2014-12-09T17:09,2014-12-06T16:36,2014-12-04T17:56,2014-12-02T16:38,2014-11-30T14:36,2014-11-26T15:45,2014-11-25T18:07,2014-11-22T14:12,2014-11-17T18:31,2014-11-15T15:09,2014-11-13T18:27,2014-11-12T18:30,2014-11-10T18:12,2014-11-09T15:43,2014-11-09T15:23,2014-10-12T15:05,2014-10-10T16:26,2014-10-09T10:51,2014-10-05T16:22
T: The Milky Way
Z: Piano Box Version by Martin Fleischmann
H: Created 2013-09-11 /  Last Modified 2013-10-04
R: reel
M: 4/4
L: 1/8
K: Dmaj
!1!D2 !2!FD !2!F!4!A!1!AB | !3!defd efd2 | D2 FD !2!F!4!AAA | !5!B!2!FFF !5!BF!4!AF |
D2 FD FAAB | defd ef d2 | !4!efd!2!B !2!B!1!A!2!F!5!B | !4!AF!1!E!3!G !2!F!1!D D2 :|
|: !4!efd!2!B B!1!AFA | !3!d2 fd ef d2 | !4!efdB B!1!A!2!F!5!B | !4!AFE!3!G F!1!D D2 |
!4!efdB BAFA | !3!d2 fd efde | !5!f3d !4!efdB | !1!A!2!FEG !2!F!1!D D2 :|


